src/sym-ux-s.svg

<svg width="32" height="32" viewBox="0 0 32 32" fill="none" xmlns="http://www.w3.org/2000/svg">
<path d="M9.24525 0.0639648L2.78125 6.52797H8.02925C8.73325 3.96797 11.4852 0.543965 12.3172 0.0639648H9.24525Z" fill="black"/>
<path d="M15.4532 6.52797V0.0639648H13.9812C11.242 2.03516 9.68258 5.19463 9.24525 6.52797H15.4532Z" fill="black"/>
<path d="M16.7012 6.52797H22.9732C21.514 3.04636 19.1439 0.767965 18.1412 0.0639648H16.7012V6.52797Z" fill="black"/>
<path d="M24.1892 6.52797H29.2772L22.7492 0.0639648H19.8692C21.9428 1.95836 23.3892 4.60797 24.1892 6.52797Z" fill="black"/>
<path d="M22.8133 31.9999L29.2773 25.5359L24.0293 25.5359C23.3253 28.0959 20.5733 31.5199 19.7413 31.9999L22.8133 31.9999Z" fill="black"/>
<path d="M16.6053 25.5359L16.6053 31.9999L18.0773 31.9999C20.8165 30.0287 22.376 26.8692 22.8133 25.5359L16.6053 25.5359Z" fill="black"/>
<path d="M15.3573 25.5359L9.08535 25.5359C10.5445 29.0175 12.9147 31.2959 13.9173 31.9999L15.3573 31.9999L15.3573 25.5359Z" fill="black"/>
<path d="M7.86935 25.5359L2.78135 25.5359L9.30935 31.9999L12.1893 31.9999C10.1157 30.1055 8.66935 27.4559 7.86935 25.5359Z" fill="black"/>
<path d="M11.1008 22.136C11.4974 22.136 11.8884 22.0963 12.2738 22.017C12.6704 21.9377 13.0388 21.7903 13.3788 21.575C13.7188 21.3597 14.0021 21.0877 14.2288 20.759C14.4668 20.4303 14.6311 20.0733 14.7218 19.688C14.8124 19.2913 14.8577 18.8947 14.8577 18.498V9.505H12.7668V18.498C12.7668 18.7247 12.7328 18.9513 12.6648 19.178C12.6081 19.3933 12.5004 19.5917 12.3418 19.773C12.1831 19.943 11.9904 20.0677 11.7638 20.147C11.5484 20.215 11.3274 20.249 11.1008 20.249C10.8741 20.249 10.6474 20.215 10.4208 20.147C10.2054 20.0677 10.0184 19.943 9.85975 19.773C9.70108 19.5917 9.58775 19.3933 9.51975 19.178C9.46308 18.9513 9.43475 18.7247 9.43475 18.498V9.505H7.34375V18.498C7.34375 18.8947 7.38908 19.2913 7.47975 19.688C7.57042 20.0733 7.72908 20.4303 7.95575 20.759C8.19375 21.0877 8.48275 21.3597 8.82275 21.575C9.16275 21.7903 9.52542 21.9377 9.91075 22.017C10.3074 22.0963 10.7041 22.136 11.1008 22.136Z" fill="black"/>
<path d="M16.7137 22H18.9407L20.8957 17.903L22.8677 22H25.0777L21.9327 15.744L25.0777 9.505H22.8677L20.8957 13.602L18.9407 9.505H16.7137L19.8587 15.744L16.7137 22Z" fill="black"/>
</svg>

<svg xmlns="http://www.w3.org/2000/svg" viewBox="0 0 32 32">
	<path
		d="M9.2.1L2.8 6.5H8c.7-2.6 3.5-6 4.3-6.5H9.2zm6.3 6.4V.1H14c-2.7 2-4.3 5.1-4.7 6.5h6.2zm1.2 0H23C21.5 3 19.2.7 18.2 0h-1.4v6.5zm7.5 0h5.1L22.8 0h-2.9c2 2 3.5 4.6 4.3 6.5zM22.8 32l6.5-6.5H24c-.7 2.6-3.5 6-4.3 6.5h3.1zm-6.2-6.5V32h1.5c2.7-2 4.3-5.1 4.7-6.5h-6.2zm-1.2 0H9.1c1.5 3.5 3.8 5.8 4.8 6.5h1.4v-6.5zm-7.5 0H2.8L9.3 32h2.9c-2.1-1.9-3.5-4.5-4.3-6.5zm3.2-3.4c.4 0 .8 0 1.2-.1.4-.1.8-.2 1.1-.4.3-.2.6-.5.8-.8.2-.3.4-.7.5-1.1.1-.4.1-.8.1-1.2v-9h-2.1v9c0 .2 0 .5-.1.7l-.3.6c-.2.2-.4.3-.6.4-.2.1-.4.1-.7.1-.2 0-.5 0-.7-.1-.2-.1-.4-.2-.6-.4-.2-.2-.3-.4-.3-.6-.1-.2-.1-.5-.1-.7v-9h-2v9c0 .4 0 .8.1 1.2.1.4.2.7.5 1.1.2.3.5.6.9.8.3.2.7.4 1.1.4.4.1.8.1 1.2.1zm5.6-.1h2.2l2-4.1 2 4.1h2.2L22 15.7l3.1-6.2h-2.2l-2 4.1-2-4.1h-2.2l3.1 6.2-3.1 6.3z" />
</svg>
